img/logo_footer.svg

<svg width="101" height="23" viewBox="0 0 101 23" fill="none" xmlns="http://www.w3.org/2000/svg">
<path d="M15.1406 15.5039V18.0352H2.70703V15.5039H15.1406ZM3.58594 15.5039V22.2188H0.527344L0.375 15.5039H3.58594ZM17.543 15.5039L17.2969 22.2305H14.3086V15.5039H17.543ZM13.1367 0.972656V3.51562H5.09766V0.972656H13.1367ZM15.5156 0.972656V18.0352H12.3047V0.972656H15.5156ZM4.58203 0.972656H7.80469L7.37109 7.91016C7.30859 9.02734 7.19141 10.0234 7.01953 10.8984C6.85547 11.7734 6.65234 12.5508 6.41016 13.2305C6.16797 13.9102 5.89844 14.5078 5.60156 15.0234C5.3125 15.5312 5.00391 15.9727 4.67578 16.3477C4.35547 16.7227 4.02344 17.0469 3.67969 17.3203C3.34375 17.5859 3.01172 17.8242 2.68359 18.0352H0.890625V15.5039H1.66406C1.89062 15.3086 2.12891 15.0352 2.37891 14.6836C2.63672 14.332 2.88281 13.8672 3.11719 13.2891C3.35938 12.7109 3.57031 11.9805 3.75 11.0977C3.92969 10.2148 4.05859 9.15234 4.13672 7.91016L4.58203 0.972656ZM33.0938 9.07031V9.94922C33.0938 11.2383 32.9219 12.3984 32.5781 13.4297C32.2344 14.4531 31.7461 15.3242 31.1133 16.043C30.4805 16.7617 29.7266 17.3125 28.8516 17.6953C27.9766 18.0781 27.0039 18.2695 25.9336 18.2695C24.8789 18.2695 23.9102 18.0781 23.0273 17.6953C22.1523 17.3125 21.3945 16.7617 20.7539 16.043C20.1133 15.3242 19.6172 14.4531 19.2656 13.4297C18.9141 12.3984 18.7383 11.2383 18.7383 9.94922V9.07031C18.7383 7.77344 18.9141 6.61328 19.2656 5.58984C19.6172 4.56641 20.1094 3.69531 20.7422 2.97656C21.375 2.25 22.1289 1.69531 23.0039 1.3125C23.8867 0.929687 24.8555 0.738281 25.9102 0.738281C26.9805 0.738281 27.9531 0.929687 28.8281 1.3125C29.7031 1.69531 30.457 2.25 31.0898 2.97656C31.7305 3.69531 32.2227 4.56641 32.5664 5.58984C32.918 6.61328 33.0938 7.77344 33.0938 9.07031ZM29.8359 9.94922V9.04688C29.8359 8.11719 29.75 7.30078 29.5781 6.59766C29.4062 5.88672 29.1523 5.28906 28.8164 4.80469C28.4805 4.32031 28.0664 3.95703 27.5742 3.71484C27.082 3.46484 26.5273 3.33984 25.9102 3.33984C25.2852 3.33984 24.7305 3.46484 24.2461 3.71484C23.7695 3.95703 23.3633 4.32031 23.0273 4.80469C22.6914 5.28906 22.4336 5.88672 22.2539 6.59766C22.082 7.30078 21.9961 8.11719 21.9961 9.04688V9.94922C21.9961 10.8711 22.082 11.6875 22.2539 12.3984C22.4336 13.1094 22.6914 13.7109 23.0273 14.2031C23.3711 14.6875 23.7852 15.0547 24.2695 15.3047C24.7539 15.5547 25.3086 15.6797 25.9336 15.6797C26.5586 15.6797 27.1133 15.5547 27.5977 15.3047C28.082 15.0547 28.4883 14.6875 28.8164 14.2031C29.1523 13.7109 29.4062 13.1094 29.5781 12.3984C29.75 11.6875 29.8359 10.8711 29.8359 9.94922ZM45.8086 12.4219H49.0312C48.9453 13.5625 48.6289 14.5742 48.082 15.457C47.5352 16.332 46.7734 17.0195 45.7969 17.5195C44.8203 18.0195 43.6367 18.2695 42.2461 18.2695C41.1758 18.2695 40.2109 18.082 39.3516 17.707C38.5 17.3242 37.7695 16.7812 37.1602 16.0781C36.5586 15.3672 36.0977 14.5156 35.7773 13.5234C35.457 12.5234 35.2969 11.4023 35.2969 10.1602V8.85938C35.2969 7.61719 35.4609 6.49609 35.7891 5.49609C36.1172 4.49609 36.5859 3.64453 37.1953 2.94141C37.8125 2.23047 38.5508 1.68359 39.4102 1.30078C40.2773 0.917969 41.2461 0.726562 42.3164 0.726562C43.707 0.726562 44.8828 0.984375 45.8438 1.5C46.8047 2.00781 47.5508 2.70703 48.082 3.59766C48.6133 4.48828 48.9336 5.51172 49.043 6.66797H45.8203C45.7578 5.94922 45.6016 5.33984 45.3516 4.83984C45.1094 4.33984 44.7422 3.96094 44.25 3.70312C43.7656 3.4375 43.1211 3.30469 42.3164 3.30469C41.6914 3.30469 41.1406 3.42188 40.6641 3.65625C40.1953 3.89062 39.8047 4.24219 39.4922 4.71094C39.1797 5.17188 38.9453 5.75 38.7891 6.44531C38.6328 7.13281 38.5547 7.92969 38.5547 8.83594V10.1602C38.5547 11.0273 38.625 11.8047 38.7656 12.4922C38.9062 13.1797 39.125 13.7617 39.4219 14.2383C39.7188 14.7148 40.1016 15.0781 40.5703 15.3281C41.0391 15.5781 41.5977 15.7031 42.2461 15.7031C43.0352 15.7031 43.6758 15.5781 44.168 15.3281C44.668 15.0781 45.0469 14.7109 45.3047 14.2266C45.5703 13.7422 45.7383 13.1406 45.8086 12.4219ZM58.3125 3.5625L53.4492 18.0352H50.0391L56.4141 0.972656H58.5938L58.3125 3.5625ZM62.3789 18.0352L57.4922 3.5625L57.1992 0.972656H59.3906L65.8008 18.0352H62.3789ZM62.1562 11.6953V14.2383H53.0039V11.6953H62.1562ZM74.3438 3.5625L69.4805 18.0352H66.0703L72.4453 0.972656H74.625L74.3438 3.5625ZM78.4102 18.0352L73.5234 3.5625L73.2305 0.972656H75.4219L81.832 18.0352H78.4102ZM78.1875 11.6953V14.2383H69.0352V11.6953H78.1875ZM89.8945 2.54297H93.4688C94.4844 2.54297 95.418 2.71094 96.2695 3.04688C97.1211 3.38281 97.8633 3.85937 98.4961 4.47656C99.1367 5.09375 99.6328 5.83203 99.9844 6.69141C100.336 7.55078 100.512 8.51172 100.512 9.57422C100.512 10.6133 100.336 11.5586 99.9844 12.4102C99.6328 13.2617 99.1367 13.9961 98.4961 14.6133C97.8633 15.2227 97.1211 15.6914 96.2695 16.0195C95.418 16.3477 94.4844 16.5117 93.4688 16.5117H89.8945C88.8789 16.5117 87.9414 16.3477 87.082 16.0195C86.2305 15.6914 85.4844 15.2227 84.8438 14.6133C84.2109 14.0039 83.7188 13.2773 83.3672 12.4336C83.0156 11.582 82.8398 10.6367 82.8398 9.59766C82.8398 8.53516 83.0156 7.57422 83.3672 6.71484C83.7188 5.85547 84.2109 5.11328 84.8438 4.48828C85.4844 3.86328 86.2305 3.38281 87.082 3.04688C87.9414 2.71094 88.8789 2.54297 89.8945 2.54297ZM89.8945 5.12109C89.082 5.12109 88.375 5.29688 87.7734 5.64844C87.1719 6 86.707 6.50781 86.3789 7.17188C86.0508 7.83594 85.8867 8.64453 85.8867 9.59766C85.8867 10.293 85.9805 10.9102 86.168 11.4492C86.3633 11.9883 86.6367 12.4414 86.9883 12.8086C87.3398 13.1758 87.7617 13.457 88.2539 13.6523C88.7461 13.8398 89.293 13.9336 89.8945 13.9336H93.4922C94.2969 13.9336 94.9922 13.7617 95.5781 13.418C96.1719 13.0742 96.6328 12.5781 96.9609 11.9297C97.2891 11.2734 97.4531 10.4883 97.4531 9.57422C97.4531 8.86328 97.3594 8.23438 97.1719 7.6875C96.9844 7.13281 96.7188 6.66406 96.375 6.28125C96.0312 5.89844 95.6133 5.60938 95.1211 5.41406C94.6367 5.21875 94.0938 5.12109 93.4922 5.12109H89.8945ZM93.2344 0.269531V18.7383H90.1406V0.269531H93.2344Z" fill="#191C21"/>
</svg>

<svg width="101" height="23" fill="none" xmlns="http://www.w3.org/2000/svg"><path d="M15.14 15.504v2.531H2.708v-2.531h12.434Zm-11.554 0v6.715H.527l-.152-6.715h3.21Zm13.957 0-.246 6.726h-2.988v-6.726h3.234ZM13.137.973v2.543h-8.04V.973h8.04Zm2.379 0v17.062h-3.211V.973h3.21Zm-10.934 0h3.223L7.37 7.91a21.994 21.994 0 0 1-.351 2.988 15.48 15.48 0 0 1-.61 2.332c-.242.68-.512 1.278-.808 1.793-.29.508-.598.95-.926 1.325a7.26 7.26 0 0 1-.996.972 12.59 12.59 0 0 1-.996.715H.89v-2.531h.773c.227-.195.465-.469.715-.82.258-.352.504-.817.738-1.395.242-.578.453-1.309.633-2.191.18-.883.309-1.946.387-3.188L4.582.973ZM33.094 9.07v.88c0 1.288-.172 2.448-.516 3.48-.344 1.023-.832 1.894-1.465 2.613a6.393 6.393 0 0 1-2.261 1.652c-.875.383-1.848.575-2.918.575-1.055 0-2.024-.192-2.907-.575a6.506 6.506 0 0 1-2.273-1.652c-.64-.719-1.137-1.59-1.488-2.613-.352-1.032-.528-2.192-.528-3.48v-.88c0-1.297.176-2.457.528-3.48.351-1.024.843-1.895 1.476-2.613a6.33 6.33 0 0 1 2.262-1.664C23.887.93 24.855.738 25.91.738c1.07 0 2.043.192 2.918.575a6.33 6.33 0 0 1 2.262 1.664c.64.718 1.133 1.59 1.476 2.613.352 1.023.528 2.183.528 3.48Zm-3.258.88v-.903c0-.93-.086-1.746-.258-2.45-.172-.71-.426-1.308-.762-1.792a3.245 3.245 0 0 0-1.242-1.09c-.492-.25-1.047-.375-1.664-.375-.625 0-1.18.125-1.664.375a3.298 3.298 0 0 0-1.219 1.09c-.336.484-.593 1.082-.773 1.793-.172.703-.258 1.52-.258 2.449v.902c0 .922.086 1.739.258 2.45.18.71.437 1.312.773 1.804a3.47 3.47 0 0 0 1.242 1.102c.485.25 1.04.375 1.665.375s1.18-.125 1.664-.375a3.28 3.28 0 0 0 1.218-1.102c.336-.492.59-1.094.762-1.805.172-.71.258-1.527.258-2.449Zm15.973 2.472h3.222c-.086 1.14-.402 2.152-.949 3.035-.547.875-1.309 1.563-2.285 2.063-.977.5-2.16.75-3.55.75-1.071 0-2.036-.188-2.895-.563a6.263 6.263 0 0 1-2.192-1.629c-.601-.71-1.062-1.562-1.383-2.555-.32-1-.48-2.12-.48-3.363v-1.3c0-1.243.164-2.364.492-3.364.328-1 .797-1.851 1.406-2.555a6.286 6.286 0 0 1 2.215-1.64c.867-.383 1.836-.574 2.906-.574 1.391 0 2.567.257 3.528.773.96.508 1.707 1.207 2.238 2.098.531.89.852 1.914.961 3.07H45.82c-.062-.719-.218-1.328-.468-1.828-.243-.5-.61-.88-1.102-1.137-.484-.265-1.129-.398-1.934-.398-.625 0-1.175.117-1.652.351-.469.235-.86.586-1.172 1.055-.312.46-.547 1.039-.703 1.734-.156.688-.234 1.485-.234 2.39v1.325c0 .867.07 1.645.21 2.332.141.688.36 1.27.657 1.746.297.477.68.84 1.148 1.09.47.25 1.028.375 1.676.375.79 0 1.43-.125 1.922-.375.5-.25.879-.617 1.137-1.101.265-.485.433-1.086.504-1.805Zm12.504-8.86-4.864 14.473h-3.41L56.414.973h2.18l-.282 2.59Zm4.066 14.473L57.492 3.562 57.2.973h2.192l6.41 17.063H62.38Zm-.223-6.34v2.543h-9.152v-2.543h9.152Zm12.188-8.133L69.48 18.035h-3.41L72.444.973h2.18l-.281 2.59Zm4.066 14.473L73.523 3.562l-.292-2.59h2.19l6.411 17.063H78.41Zm-.222-6.34v2.543h-9.153v-2.543h9.153Zm11.706-9.152h3.575c1.015 0 1.949.168 2.8.504a6.642 6.642 0 0 1 2.227 1.43 6.4 6.4 0 0 1 1.488 2.214c.352.86.528 1.82.528 2.883 0 1.04-.176 1.985-.528 2.836a6.426 6.426 0 0 1-1.488 2.203 6.584 6.584 0 0 1-2.227 1.407c-.851.328-1.785.492-2.8.492h-3.575c-1.015 0-1.953-.164-2.812-.492a6.712 6.712 0 0 1-2.238-1.407 6.41 6.41 0 0 1-1.477-2.18c-.351-.851-.527-1.796-.527-2.835 0-1.063.176-2.024.527-2.883a6.605 6.605 0 0 1 1.477-2.227 6.68 6.68 0 0 1 2.238-1.441c.86-.336 1.797-.504 2.813-.504Zm0 2.578c-.812 0-1.519.176-2.12.527-.602.352-1.067.86-1.395 1.524-.328.664-.492 1.473-.492 2.426 0 .695.094 1.312.281 1.851.195.54.469.992.82 1.36a3.53 3.53 0 0 0 1.266.843 4.563 4.563 0 0 0 1.64.282h3.598c.805 0 1.5-.172 2.086-.516a3.497 3.497 0 0 0 1.383-1.488c.328-.657.492-1.442.492-2.356 0-.71-.094-1.34-.281-1.886a3.982 3.982 0 0 0-.797-1.407 3.291 3.291 0 0 0-1.254-.867 4.321 4.321 0 0 0-1.629-.293h-3.598ZM93.234.27v18.468h-3.093V.27h3.093Z" fill="#191C21"/></svg>
